storage/app/icons/phosphoricons/bold/suitcase-rolling-bold.svg

<svg xmlns="http://www.w3.org/2000/svg" fill="currentColor" viewBox="0 0 256 256"><path d="M116 96v80a12 12 0 0 1-24 0V96a12 12 0 0 1 24 0m24 0v80a12 12 0 0 0 24 0V96a12 12 0 0 0-24 0m72-32v144a20 20 0 0 1-20 20h-12v12a12 12 0 0 1-24 0v-12h-56v12a12 12 0 0 1-24 0v-12H64a20 20 0 0 1-20-20V64a20 20 0 0 1 20-20h20V28a28 28 0 0 1 28-28h32a28 28 0 0 1 28 28v16h20a20 20 0 0 1 20 20M108 44h40V28a4 4 0 0 0-4-4h-32a4 4 0 0 0-4 4Zm80 24H68v136h120Z"/></svg>

<svg xmlns="http://www.w3.org/2000/svg" viewBox="0 0 256 256" fill="currentColor"><path d="M116,96v80a12,12,0,0,1-24,0V96a12,12,0,0,1,24,0Zm24,0v80a12,12,0,0,0,24,0V96a12,12,0,0,0-24,0Zm72-32V208a20,20,0,0,1-20,20H180v12a12,12,0,0,1-24,0V228H100v12a12,12,0,0,1-24,0V228H64a20,20,0,0,1-20-20V64A20,20,0,0,1,64,44H84V28A28,28,0,0,1,112,0h32a28,28,0,0,1,28,28V44h20A20,20,0,0,1,212,64ZM108,44h40V28a4,4,0,0,0-4-4H112a4,4,0,0,0-4,4Zm80,24H68V204H188Z"/></svg>
